picto/jump-on-train-prohibited-when-door-is-closing-right.svg

<svg class="color-immutable" width="24" height="24" viewBox="0 0 24 24" fill="none" xmlns="http://www.w3.org/2000/svg"><g clip-path="url(#a)"><path d="M0 22.5v-21C0 .675.675 0 1.5 0h21c.825 0 1.5.675 1.5 1.5v21c0 .825-.675 1.5-1.5 1.5h-21C.675 24 0 23.325 0 22.5Z" fill="#2D327D"/><path d="M14.55 9.417V7.071a1.192 1.192 0 0 0 0 2.346ZM7.39 16.415a1.048 1.048 0 0 1-.751.311H3.237c-.081 0-.16-.01-.237-.028V21h6v-6.195l-1.61 1.61ZM3.658 3H3v.658L3.658 3ZM5.186 4.125H6.75c.207 0 .375.168.375.375v1.564L9 7.939V3H4.061l1.125 1.125ZM7.435 11.218c0-.236.092-.457.258-.621l.922-.922-1.49-1.49v4.94a.375.375 0 0 1-.375.375H4.5a.375.375 0 0 1-.375-.375v-7.94L3 4.06v10.57c.076-.017.155-.028.237-.028h2.875l2.601-2.601a.879.879 0 0 1-1.278-.783ZM10.877 9.816h.656l-.328.328.73.73.785.785.312-.312v.624l1.153 1.153.365.365v-.886h-.629V10.46c0-.844-.685-1.531-1.532-1.531H10.25a.63.63 0 0 0-.219.041l.846.846Z" fill="#fff"/><path d="m11.019 13.362.641-.641-1.059-1.059-.457-.457-3.847 3.847h-3.06a.612.612 0 0 0 0 1.224h3.402a.606.606 0 0 0 .432-.179l2.432-2.432 2.305 2.304v3.367a.614.614 0 0 0 1.225 0v-3.707a.61.61 0 0 0-.179-.434l-1.835-1.833ZM8.314 11.646a.434.434 0 0 0 .304-.125l.921-.922-.606-.606-.922.922a.428.428 0 0 0 .303.731ZM15 16.06V21h4.94L15 16.06ZM20.341 21H21v-.659l-.659.659ZM21 19.939V3h-6v10.939l6 6ZM16.875 4.5c0-.207.168-.375.375-.375h2.25c.207 0 .375.168.375.375v8.625a.375.375 0 0 1-.375.375h-2.25a.375.375 0 0 1-.375-.375V4.5Z" fill="#fff"/><path d="m14.185 13.125-2.249-2.25-8.077-8.077-1.06 1.061 7.802 7.803 1.463 1.463 8.076 8.076 1.061-1.061-7.016-7.015Z" fill="#EB0000"/></g><defs><clipPath id="a"><path fill="#fff" d="M0 0h24v24H0z"/></clipPath></defs></svg>

<svg class="color-immutable" width="24" height="24" viewBox="0 0 24 24" fill="none" xmlns="http://www.w3.org/2000/svg"><path d="M0 22.5V1.5C0 0.675 0.675 0 1.5 0H22.5C23.325 0 24 0.675 24 1.5V22.5C24 23.325 23.325 24 22.5 24H1.5C0.675 24 0 23.325 0 22.5Z" fill="#2D327D"/><path d="M14.55 9.417V7.071C13.995 7.172 13.573 7.658 13.573 8.244C13.573 8.829 13.995 9.316 14.55 9.417Z" fill="white"/><path d="M7.39 16.415C7.191 16.616 6.924 16.726 6.639 16.726H3.237C3.156 16.726 3.077 16.716 3 16.698V21H9V14.805L7.39 16.415Z" fill="white"/><path d="M3.658 3H3V3.658L3.658 3Z" fill="white"/><path d="M5.18597 4.125H6.74997C6.95697 4.125 7.12497 4.293 7.12497 4.5V6.064L8.99997 7.939V3H4.06097L5.18597 4.125Z" fill="white"/><path d="M7.435 11.218C7.435 10.982 7.527 10.761 7.693 10.597L8.615 9.675L7.125 8.185V13.125C7.125 13.332 6.957 13.5 6.75 13.5H4.5C4.293 13.5 4.125 13.332 4.125 13.125V5.185L3 4.06V14.63C3.076 14.613 3.155 14.602 3.237 14.602H6.112L8.713 12.001C8.591 12.063 8.455 12.096 8.314 12.096C7.829 12.096 7.435 11.702 7.435 11.218Z" fill="white"/><path d="M10.877 9.816H11.533L11.205 10.144L11.935 10.874L12.72 11.659L13.032 11.347V11.971L14.185 13.124L14.55 13.489V12.603H13.921V10.46C13.921 9.616 13.236 8.929 12.389 8.929H10.25C10.175 8.929 10.101 8.944 10.031 8.97L10.877 9.816Z" fill="white"/><path d="M11.019 13.362L11.66 12.721L10.601 11.662L10.144 11.205L6.297 15.052H3.237C2.899 15.052 2.625 15.326 2.625 15.665C2.625 16.002 2.898 16.276 3.237 16.276H6.639C6.801 16.276 6.956 16.213 7.071 16.097L9.503 13.665L11.808 15.969V19.336C11.808 19.674 12.083 19.949 12.421 19.949C12.759 19.949 13.033 19.674 13.033 19.336V15.629C13.033 15.466 12.97 15.311 12.854 15.195L11.019 13.362Z" fill="white"/><path d="M8.31401 11.646C8.42801 11.646 8.53601 11.601 8.61801 11.521L9.53901 10.599L8.93301 9.993L8.01101 10.915C7.93101 10.995 7.88501 11.103 7.88501 11.218C7.88501 11.453 8.07701 11.646 8.31401 11.646Z" fill="white"/><path d="M15 16.06V21H19.94L15 16.06Z" fill="white"/><path d="M20.341 21H21V20.341L20.341 21Z" fill="white"/><path d="M21 19.939V3H15V13.939L21 19.939ZM16.875 4.5C16.875 4.293 17.043 4.125 17.25 4.125H19.5C19.707 4.125 19.875 4.293 19.875 4.5V13.125C19.875 13.332 19.707 13.5 19.5 13.5H17.25C17.043 13.5 16.875 13.332 16.875 13.125V4.5Z" fill="white"/><path d="M14.185 13.125L11.936 10.875L3.85901 2.798L2.79901 3.859L10.601 11.662L12.064 13.125L20.14 21.201L21.201 20.14L14.185 13.125Z" fill="#EB0000"/></svg>
